X:1
T:Lang, Lang Agrowing
M:4/4
L:1/4
K:C
 G| G c G E| F3 E/2F/2| G c c B| c3c/2-d/2| e c e f| g2 fg/2-f/2| e c d B|\
 G3c/2-d/2| e c e f| g2 fg/2-f/2| e cd/2-c/2G/2-E/2| F3 E/2F/2| G c c e|\
 d2 G F| E2 c2-| c2 z||
